svgs/solid/bring-forward.svg

<svg xmlns="http://www.w3.org/2000/svg" viewBox="0 0 512 512"><!--! Font Awesome Pro 6.5.1 by @fontawesome - https://fontawesome.com License - https://fontawesome.com/license (Commercial License) Copyright 2023 Fonticons, Inc. --><path d="M224 448H448V224H384V160h64c35.3 0 64 28.7 64 64V448c0 35.3-28.7 64-64 64H224c-35.3 0-64-28.7-64-64V384h64v64zm64-96H64c-35.3 0-64-28.7-64-64V64C0 28.7 28.7 0 64 0H288c35.3 0 64 28.7 64 64V288c0 35.3-28.7 64-64 64z"/></svg>

<svg xmlns="http://www.w3.org/2000/svg" viewBox="0 0 512 512"><!--! Font Awesome Pro 6.1.1 by @fontawesome - https://fontawesome.com License - https://fontawesome.com/license (Commercial License) Copyright 2022 Fonticons, Inc. --><path d="M224 448H448V224H384V160H448C483.3 160 512 188.7 512 224V448C512 483.3 483.3 512 448 512H224C188.7 512 160 483.3 160 448V384H224V448zM64 352C28.65 352 0 323.3 0 288V64C0 28.65 28.65 0 64 0H288C323.3 0 352 28.65 352 64V288C352 323.3 323.3 352 288 352H64z"/></svg>
